X:1
T:La mia Ninfa
T:Stefano Landi
T:Source : Arie---Quinto libro---Venetia---B.Magni---1637. Editor : André Vierendeels (10/02/17).
T:Notes : Original clefs : C1, F4 Original note values have been halved Figures in BC are notated in original print Dotted brackets indicate black notes "Littere per la chitarra" : continuo proposed by the editor Poesia del medecimo
T:La mia Ninfa
T:©
T:©
T:©
T:©
C:Stefano Landi
Z:©
%%score 1 { ( 2 3 ) | 4 }
L:1/8
Q:1/4=100
M:6/4
K:C
V:1 treble nm="Soprano" snm="S"
V:2 treble nm="MusicXML Part"
V:3 treble 
V:4 bass 
V:1
 z2 B3 c d2 d2 e2 | d3 c BA B6 :: z2 z2 B2 A2 ^F3 B | A3 G ^FE F6 | z2 ^F3 G A2 BA GF | %5
w: La mia Nin- fa leg-|gia- * * * dra,|è la- dra, è|la- * * * dra,|la mia Nin- fa _ leg- *|
w: La mia fiam- ma no-|vel- * * * la,|è bel- la, è|bel- * * * la,|ma non è poi- * co- *|
w: La mia Fil- li guer-|rie- * * * ra,|è fie- ra, è|fie- * * * ra,|con l'in- cen- dio _ de _|
 ^F2 E2 D2 D6 | z2 z2 z B G2 E3 c | A2 ^F3 d d2 ^c2 d2 | d6 z2 c3 d | e2 d2 c2 c2 B2 A2 | %10
w: gia- * * dra,|è la- dra, è|la- dra, è la- * *|dra, la mia|Nin- fa leg- gia- * *|
w: stan- * * te,|è bel- la, è|bel- la, è bel- * *|la, la mia|fiam- ma no- vel- * *|
w: sguar- * * di,|è fie- ra, è|fie- ra, è fie- * *|ra, la mia|Fil- li guer- rie- * *|
 A6 z2 z2 B2 | G2 E2 cB B2 A2 G2 |[M:3/4] G6 :| z2 G2 G2 |[M:6/4] G2 G2 G2 A3 G AB | c6 z6 | %16
w: dra, è|la- dra, è _ la- * *|dra,|con in-|du- stria d'a- mo- * * *|re,|
w: la, è|bel- la, è bel- * * *|la,|co- me|so- no io fe- * de- *|le,|
w: ra, è|fie- ra, è fie- * * *|ra,|al mio|se- no'av- ven- to fa- cel- *|le,|
 G2 G2 G2 AG AB cA | BA Bc d2 z2 c2 B2 | A2 f2 e2 e2 d2 c2 | c6 e2 d2 c2 | B3 A G2 ^F2 F2 E2 | %21
w: l'a- ni- ma mi _ _ _ fu- *|ro _ _ _ _ pi- a|gom- m'il _ co- * *|re, o bell' e|va- ga, o bel- la e|
w: e ve- ro'A- man- * * * * *|* * * * te, oh cru-|da, oh fe- ra, o mia|fiam- ma no- vel-|la, o mia fiam- ma no-|
w: fa- cel- l'e dar- * * * * *|* * * * di, o Ti-|gre, o sfin- ge, o mia|Fil- li guer- rie-|ra, o mia Fil- li gue-|
 ^F4 F2 z2 F3 G | A2 BA G^F F2 E2 D2 | D6 z2 A3 A | B2 B3 c d2 B3 B | c2 c3 d e6- | e2 c4 B4 A2- | %27
w: va- ga, o mia|Nin- fa _ leg- * gia- * *|dra, s'ho- mi-|ci- da sei tu, s'ho- mi-|ci- da sei tu|_ non es- ser|
w: vel- la, o mia|fiam- ma- * no- * vel- * *|la, per- che|bel- la sei tu, per- che|bel- la sei tu,|_ se sei ru-|
w: rie- ra, o mia|Fil- li _ gue- * rie- * *|ra, se leg-|gia- dra sei tu, se leg-|gia- dra sei tu,|_ non es- ser|
 A2 A4 !fermata!G6 |] %28
w: _ la- dra.|
w: * bel- la.|
w: _ fie- ra.|
V:2
 B6 d4 c2 | d6 B6 :: G4 B2 A2 A3 B | d6 ^F6 | A6 A2 B4 | E4 ^F2 F6 | G6 G6 | A4 d4 ^c2 d2 | A6 G6 | %9
 e2 A4 c2 B2 A2 | c6 d6 | G6 G2 ^F2 G2 |[M:3/4] D6 :| G6 |[M:6/4] c6 A6 | G6 G6 | d6 A2 c4 | %17
 B6 e2 c2 B2 | c6 B6 | G6 c6 | d6 d4 c2 | d6 A6 | d6 c2 e2 d2 | A6 A6 | d2 c4 d2 B4 | c6 G6 | %26
 c6 B4 c2- | c2 A4 !fermata!B6 |] %28
V:3
 D6 G4 E2 | G6 D6 :: z2 z2 D4 ^F3 G | A6 D6 | D6 D2 D4 | D2 ^C2 D2 D6 | D6 E6 | D4 ^F2 G6 | %8
 ^F6 D6 | G2 F4 G2 E4 | E6 G6 | E6 C2 D4 |[M:3/4] B,6 :| D6 |[M:6/4] E6 C6 | E6 E6 | G6 ^F2 E4 | %17
 D6 G6 | A6 D6 | E6 G6 | G6 A6 | A6 ^F6 | A2 G4 A2 G2 ^F2 | ^F6 G4 F2 | G4 ^F2 G2 D4 | G6 E6 | %26
 G2 A4 G4 E2- | E2 G2 ^F2 G6 |] %28
V:4
"^BC""^6""^6" z2 G,3 A, B,2 B,3 C |"^6" B,6 G,6 :: z2 z2 G,2 ^F,2 D,3 G, | ^F,6 D,6 | %4
 z2 D,3 E, ^F,2 G,4 |"^4 3" A,6 D,6 |"^6" B,,6 C,6 | D,6 E,6 |"^#3""^6" D,6 B,,6 | %9
"^-natural3""^4 3" C,2 D,4 D,2 E,4 | A,,4 C,2 B,,2 G,,4 |"^3 4" C,6 C,2 D,4 |[M:3/4] G,,6 :| G,6 | %14
[M:6/4]"^6" E,6 F,6 | C,6 C,6 |"^#6" B,,6 A,,6 |"^6" G,,6 E,,6 |"^4 3" F,,6 G,,6 | C,6 C2 B,2 A,2 | %20
 G,3 ^F, E,2 D,2 F,2 A,2 | D,4 D,2 z2 D,3 E, | ^F,2 G,4 A,6 |"^#3" D,6 D,6 | %24
"^6""^#6" B,,2 A,,4 G,,2 G,3 ^F, |"^6" E,2 E,3 D, C,6- | C,2 F,4 G,4 C,2- | %27
"^4 3" C,2 D,4 !fermata!G,,6 |] %28

